images-mobile/svg/icon4.svg

<svg width="110" height="56" viewBox="0 0 110 56" fill="none" xmlns="http://www.w3.org/2000/svg">
<path d="M25.8801 20.5179H25.8772C23.4916 20.5179 21.5576 22.2616 21.5576 24.4124V24.415C21.5576 26.5658 23.4916 28.3094 25.8772 28.3094H25.8801C28.2657 28.3094 30.1997 26.5658 30.1997 24.415V24.4124C30.1997 22.2616 28.2657 20.5179 25.8801 20.5179Z" fill="#8E8F99"/>
<path d="M57.7632 19.273C57.7564 16.2855 56.4373 13.4221 54.0946 11.3094C51.7519 9.19673 48.5763 8.00678 45.2629 8V8C41.9484 8.00543 38.7714 9.19477 36.4274 11.3076C34.0835 13.4205 32.7636 16.2846 32.7568 19.273V35.7472C32.7568 35.7472 57.7604 33.2364 57.7632 19.2755V19.273Z" fill="#8E8F99"/>
<path d="M12.8018 41.1543C12.8078 43.233 13.7261 45.2251 15.3561 46.6952C16.9861 48.1653 19.1952 48.9939 21.5007 49C23.8058 48.9939 26.0145 48.1657 27.6444 46.6961C29.2743 45.2265 30.193 43.2351 30.1997 41.1569V29.6938C30.1997 29.6938 12.8018 31.4422 12.8018 41.1543ZM21.5007 43.2082C21.0502 43.2082 20.6098 43.0877 20.2352 42.862C19.8606 42.6364 19.5686 42.3156 19.3962 41.9403C19.2238 41.565 19.1786 41.152 19.2665 40.7536C19.3544 40.3552 19.5714 39.9893 19.89 39.702C20.2086 39.4148 20.6144 39.2192 21.0563 39.1399C21.4982 39.0607 21.9562 39.1014 22.3725 39.2568C22.7887 39.4123 23.1445 39.6755 23.3948 40.0133C23.6451 40.351 23.7787 40.7481 23.7787 41.1543C23.7798 41.4247 23.7217 41.6926 23.6078 41.9427C23.4938 42.1927 23.3262 42.4201 23.1145 42.6116C22.9029 42.8031 22.6514 42.9551 22.3745 43.0588C22.0975 43.1625 21.8006 43.2159 21.5007 43.2159V43.2082Z" fill="#8E8F99"/>
<path d="M37.4102 39.515V43.7806H36.5312V39.515H37.4102ZM39.1094 41.3373V42.0228H37.1699V41.3373H39.1094ZM39.3145 39.515V40.2035H37.1699V39.515H39.3145ZM43.3281 41.5482V41.7504C43.3281 42.0746 43.2842 42.3656 43.1963 42.6234C43.1084 42.8812 42.9844 43.101 42.8242 43.2826C42.6641 43.4623 42.4727 43.6 42.25 43.6957C42.0293 43.7914 41.7842 43.8392 41.5146 43.8392C41.2471 43.8392 41.002 43.7914 40.7793 43.6957C40.5586 43.6 40.3672 43.4623 40.2051 43.2826C40.043 43.101 39.917 42.8812 39.8271 42.6234C39.7393 42.3656 39.6953 42.0746 39.6953 41.7504V41.5482C39.6953 41.222 39.7393 40.931 39.8271 40.6752C39.915 40.4174 40.0391 40.1976 40.1992 40.016C40.3613 39.8344 40.5527 39.6957 40.7734 39.6C40.9961 39.5043 41.2412 39.4564 41.5088 39.4564C41.7783 39.4564 42.0234 39.5043 42.2441 39.6C42.4668 39.6957 42.6582 39.8344 42.8184 40.016C42.9805 40.1976 43.1055 40.4174 43.1934 40.6752C43.2832 40.931 43.3281 41.222 43.3281 41.5482ZM42.4404 41.7504V41.5424C42.4404 41.3158 42.4199 41.1166 42.3789 40.9447C42.3379 40.7728 42.2773 40.6283 42.1973 40.5111C42.1172 40.3939 42.0195 40.306 41.9043 40.2474C41.7891 40.1869 41.6572 40.1566 41.5088 40.1566C41.3604 40.1566 41.2285 40.1869 41.1133 40.2474C41 40.306 40.9033 40.3939 40.8232 40.5111C40.7451 40.6283 40.6855 40.7728 40.6445 40.9447C40.6035 41.1166 40.583 41.3158 40.583 41.5424V41.7504C40.583 41.975 40.6035 42.1742 40.6445 42.348C40.6855 42.5199 40.7461 42.6654 40.8262 42.7845C40.9062 42.9017 41.0039 42.9906 41.1191 43.0511C41.2344 43.1117 41.3662 43.142 41.5146 43.142C41.6631 43.142 41.7949 43.1117 41.9102 43.0511C42.0254 42.9906 42.1221 42.9017 42.2002 42.7845C42.2783 42.6654 42.3379 42.5199 42.3789 42.348C42.4199 42.1742 42.4404 41.975 42.4404 41.7504ZM46.1816 42.6644C46.1816 42.5883 46.1699 42.5199 46.1465 42.4594C46.125 42.3969 46.084 42.3402 46.0234 42.2894C45.9629 42.2367 45.8779 42.1849 45.7686 42.1342C45.6592 42.0834 45.5176 42.0306 45.3438 41.976C45.1504 41.9135 44.9668 41.8431 44.793 41.765C44.6211 41.6869 44.4688 41.5961 44.3359 41.4926C44.2051 41.3871 44.1016 41.265 44.0254 41.1263C43.9512 40.9877 43.9141 40.8265 43.9141 40.6429C43.9141 40.4652 43.9531 40.3041 44.0312 40.1595C44.1094 40.0131 44.2188 39.8881 44.3594 39.7845C44.5 39.6791 44.666 39.598 44.8574 39.5414C45.0508 39.4847 45.2627 39.4564 45.4932 39.4564C45.8076 39.4564 46.082 39.5131 46.3164 39.6263C46.5508 39.7396 46.7324 39.8949 46.8613 40.0922C46.9922 40.2894 47.0576 40.515 47.0576 40.7689H46.1846C46.1846 40.6439 46.1582 40.5345 46.1055 40.4408C46.0547 40.3451 45.9766 40.2699 45.8711 40.2152C45.7676 40.1605 45.6367 40.1332 45.4785 40.1332C45.3262 40.1332 45.1992 40.1566 45.0977 40.2035C44.9961 40.2484 44.9199 40.3099 44.8691 40.3881C44.8184 40.4642 44.793 40.5502 44.793 40.6459C44.793 40.7181 44.8105 40.7836 44.8457 40.8422C44.8828 40.9008 44.9375 40.9554 45.0098 41.0062C45.082 41.057 45.1709 41.1049 45.2764 41.1498C45.3818 41.1947 45.5039 41.2386 45.6426 41.2816C45.875 41.3519 46.0791 41.431 46.2549 41.5189C46.4326 41.6068 46.5811 41.7054 46.7002 41.8148C46.8193 41.9242 46.9092 42.0482 46.9697 42.1869C47.0303 42.3256 47.0605 42.4828 47.0605 42.6586C47.0605 42.8441 47.0244 43.0101 46.9521 43.1566C46.8799 43.3031 46.7754 43.4271 46.6387 43.5287C46.502 43.6302 46.3389 43.7074 46.1494 43.7601C45.96 43.8129 45.748 43.8392 45.5137 43.8392C45.3027 43.8392 45.0947 43.8119 44.8896 43.7572C44.6846 43.7006 44.498 43.6156 44.3301 43.5023C44.1641 43.389 44.0312 43.2445 43.9316 43.0687C43.832 42.8929 43.7822 42.6849 43.7822 42.4447H44.6641C44.6641 42.5775 44.6846 42.6898 44.7256 42.7816C44.7666 42.8734 44.8242 42.9476 44.8984 43.0043C44.9746 43.0609 45.0645 43.1019 45.168 43.1273C45.2734 43.1527 45.3887 43.1654 45.5137 43.1654C45.666 43.1654 45.791 43.1439 45.8887 43.101C45.9883 43.058 46.0615 42.9984 46.1084 42.9222C46.1572 42.8461 46.1816 42.7601 46.1816 42.6644ZM49.5654 39.515V43.7806H48.6895V39.515H49.5654ZM50.8779 39.515V40.2035H47.3975V39.515H50.8779ZM54.2412 43.0951V43.7806H51.9707V43.0951H54.2412ZM52.2578 39.515V43.7806H51.3789V39.515H52.2578ZM53.9453 41.2523V41.9203H51.9707V41.2523H53.9453ZM54.2383 39.515V40.2035H51.9707V39.515H54.2383ZM54.7539 39.515H56.3447C56.6709 39.515 56.9512 39.5638 57.1855 39.6615C57.4219 39.7592 57.6035 39.9037 57.7305 40.0951C57.8574 40.2865 57.9209 40.5219 57.9209 40.8011C57.9209 41.0297 57.8818 41.226 57.8037 41.39C57.7275 41.5521 57.6191 41.6879 57.4785 41.7972C57.3398 41.9047 57.1768 41.9906 56.9893 42.0551L56.7109 42.2015H55.3281L55.3223 41.516H56.3506C56.5049 41.516 56.6328 41.4886 56.7344 41.434C56.8359 41.3793 56.9121 41.3031 56.9629 41.2054C57.0156 41.1078 57.042 40.9945 57.042 40.8656C57.042 40.7289 57.0166 40.6107 56.9658 40.5111C56.915 40.4115 56.8379 40.3353 56.7344 40.2826C56.6309 40.2299 56.501 40.2035 56.3447 40.2035H55.6328V43.7806H54.7539V39.515ZM57.1387 43.7806L56.166 41.8793L57.0947 41.8734L58.0791 43.7396V43.7806H57.1387ZM61.7529 42.2601H60.666V41.5746H61.7529C61.9209 41.5746 62.0576 41.5472 62.1631 41.4926C62.2686 41.4359 62.3457 41.3578 62.3945 41.2582C62.4434 41.1586 62.4678 41.0463 62.4678 40.9213C62.4678 40.7943 62.4434 40.6761 62.3945 40.5668C62.3457 40.4574 62.2686 40.3695 62.1631 40.3031C62.0576 40.2367 61.9209 40.2035 61.7529 40.2035H60.9707V43.7806H60.0918V39.515H61.7529C62.0869 39.515 62.373 39.5756 62.6113 39.6967C62.8516 39.8158 63.0352 39.9808 63.1621 40.1918C63.2891 40.4027 63.3525 40.6439 63.3525 40.9154C63.3525 41.1908 63.2891 41.4291 63.1621 41.6302C63.0352 41.8314 62.8516 41.9867 62.6113 42.0961C62.373 42.2054 62.0869 42.2601 61.7529 42.2601ZM66.8213 43.0951V43.7806H64.5508V43.0951H66.8213ZM64.8379 39.515V43.7806H63.959V39.515H64.8379ZM66.5254 41.2523V41.9203H64.5508V41.2523H66.5254ZM66.8184 39.515V40.2035H64.5508V39.515H66.8184ZM69.2998 39.515V43.7806H68.4238V39.515H69.2998ZM70.6123 39.515V40.2035H67.1318V39.515H70.6123ZM73.9756 43.0951V43.7806H71.7051V43.0951H73.9756ZM71.9922 39.515V43.7806H71.1133V39.515H71.9922ZM73.6797 41.2523V41.9203H71.7051V41.2523H73.6797ZM73.9727 39.515V40.2035H71.7051V39.515H73.9727ZM74.4883 39.515H76.0791C76.4053 39.515 76.6855 39.5638 76.9199 39.6615C77.1562 39.7592 77.3379 39.9037 77.4648 40.0951C77.5918 40.2865 77.6553 40.5219 77.6553 40.8011C77.6553 41.0297 77.6162 41.226 77.5381 41.39C77.4619 41.5521 77.3535 41.6879 77.2129 41.7972C77.0742 41.9047 76.9111 41.9906 76.7236 42.0551L76.4453 42.2015H75.0625L75.0566 41.516H76.085C76.2393 41.516 76.3672 41.4886 76.4688 41.434C76.5703 41.3793 76.6465 41.3031 76.6973 41.2054C76.75 41.1078 76.7764 40.9945 76.7764 40.8656C76.7764 40.7289 76.751 40.6107 76.7002 40.5111C76.6494 40.4115 76.5723 40.3353 76.4688 40.2826C76.3652 40.2299 76.2354 40.2035 76.0791 40.2035H75.3672V43.7806H74.4883V39.515ZM76.873 43.7806L75.9004 41.8793L76.8291 41.8734L77.8135 43.7396V43.7806H76.873ZM80.5527 42.6644C80.5527 42.5883 80.541 42.5199 80.5176 42.4594C80.4961 42.3969 80.4551 42.3402 80.3945 42.2894C80.334 42.2367 80.249 42.1849 80.1396 42.1342C80.0303 42.0834 79.8887 42.0306 79.7148 41.976C79.5215 41.9135 79.3379 41.8431 79.1641 41.765C78.9922 41.6869 78.8398 41.5961 78.707 41.4926C78.5762 41.3871 78.4727 41.265 78.3965 41.1263C78.3223 40.9877 78.2852 40.8265 78.2852 40.6429C78.2852 40.4652 78.3242 40.3041 78.4023 40.1595C78.4805 40.0131 78.5898 39.8881 78.7305 39.7845C78.8711 39.6791 79.0371 39.598 79.2285 39.5414C79.4219 39.4847 79.6338 39.4564 79.8643 39.4564C80.1787 39.4564 80.4531 39.5131 80.6875 39.6263C80.9219 39.7396 81.1035 39.8949 81.2324 40.0922C81.3633 40.2894 81.4287 40.515 81.4287 40.7689H80.5557C80.5557 40.6439 80.5293 40.5345 80.4766 40.4408C80.4258 40.3451 80.3477 40.2699 80.2422 40.2152C80.1387 40.1605 80.0078 40.1332 79.8496 40.1332C79.6973 40.1332 79.5703 40.1566 79.4688 40.2035C79.3672 40.2484 79.291 40.3099 79.2402 40.3881C79.1895 40.4642 79.1641 40.5502 79.1641 40.6459C79.1641 40.7181 79.1816 40.7836 79.2168 40.8422C79.2539 40.9008 79.3086 40.9554 79.3809 41.0062C79.4531 41.057 79.542 41.1049 79.6475 41.1498C79.7529 41.1947 79.875 41.2386 80.0137 41.2816C80.2461 41.3519 80.4502 41.431 80.626 41.5189C80.8037 41.6068 80.9521 41.7054 81.0713 41.8148C81.1904 41.9242 81.2803 42.0482 81.3408 42.1869C81.4014 42.3256 81.4316 42.4828 81.4316 42.6586C81.4316 42.8441 81.3955 43.0101 81.3232 43.1566C81.251 43.3031 81.1465 43.4271 81.0098 43.5287C80.873 43.6302 80.71 43.7074 80.5205 43.7601C80.3311 43.8129 80.1191 43.8392 79.8848 43.8392C79.6738 43.8392 79.4658 43.8119 79.2607 43.7572C79.0557 43.7006 78.8691 43.6156 78.7012 43.5023C78.5352 43.389 78.4023 43.2445 78.3027 43.0687C78.2031 42.8929 78.1533 42.6849 78.1533 42.4447H79.0352C79.0352 42.5775 79.0557 42.6898 79.0967 42.7816C79.1377 42.8734 79.1953 42.9476 79.2695 43.0043C79.3457 43.0609 79.4355 43.1019 79.5391 43.1273C79.6445 43.1527 79.7598 43.1654 79.8848 43.1654C80.0371 43.1654 80.1621 43.1439 80.2598 43.101C80.3594 43.058 80.4326 42.9984 80.4795 42.9222C80.5283 42.8461 80.5527 42.7601 80.5527 42.6644Z" fill="#8E8F99"/>
</svg>

<svg xmlns="http://www.w3.org/2000/svg" width="110" height="56" fill="none"><path fill="#8E8F99" d="M25.88 20.518h-.003c-2.385 0-4.32 1.744-4.32 3.894v.003c0 2.15 1.935 3.894 4.32 3.894h.003c2.386 0 4.32-1.743 4.32-3.894v-.003c0-2.15-1.934-3.894-4.32-3.894ZM57.763 19.273c-.007-2.988-1.326-5.85-3.668-7.964C51.752 9.197 48.576 8.007 45.263 8c-3.315.005-6.492 1.195-8.836 3.308-2.343 2.113-3.663 4.977-3.67 7.965v16.474s25.003-2.51 25.006-16.471v-.003ZM12.802 41.154c.006 2.079.924 4.071 2.554 5.541 1.63 1.47 3.84 2.299 6.145 2.305 2.305-.006 4.514-.834 6.143-2.304 1.63-1.47 2.549-3.46 2.556-5.54V29.695s-17.398 1.748-17.398 11.46Zm8.699 2.054c-.45 0-.891-.12-1.266-.346a2.115 2.115 0 0 1-.839-.922 1.867 1.867 0 0 1-.13-1.186 2 2 0 0 1 .624-1.052 2.365 2.365 0 0 1 1.166-.562c.442-.08.9-.039 1.316.117.417.155.773.419 1.023.756.25.338.384.735.384 1.141a1.88 1.88 0 0 1-.171.789c-.114.25-.282.477-.494.669a2.308 2.308 0 0 1-.74.447 2.496 2.496 0 0 1-.873.157v-.008ZM37.41 39.515v4.266h-.879v-4.266h.88Zm1.7 1.822v.686h-1.94v-.686h1.94Zm.205-1.822v.688H37.17v-.688h2.145Zm4.013 2.033v.202c0 .325-.044.616-.132.873a1.92 1.92 0 0 1-.372.66c-.16.18-.351.317-.574.413a1.83 1.83 0 0 1-.735.143c-.268 0-.513-.048-.736-.143a1.648 1.648 0 0 1-.574-.413 1.932 1.932 0 0 1-.378-.66 2.7 2.7 0 0 1-.132-.873v-.202c0-.326.044-.617.132-.873a1.92 1.92 0 0 1 .372-.659c.162-.182.354-.32.574-.416.223-.096.468-.144.736-.144.27 0 .514.048.735.144.223.096.414.234.574.416.163.182.288.401.375.66.09.255.135.546.135.872Zm-.888.202v-.208c0-.226-.02-.425-.061-.597a1.297 1.297 0 0 0-.182-.434.785.785 0 0 0-.293-.264.838.838 0 0 0-.395-.09c-.149 0-.28.03-.396.09a.792.792 0 0 0-.29.264 1.335 1.335 0 0 0-.178.434 2.593 2.593 0 0 0-.062.597v.208c0 .225.02.424.062.598.04.172.101.317.181.437.08.117.178.206.293.266.115.06.247.091.396.091.148 0 .28-.03.395-.09a.786.786 0 0 0 .29-.267 1.37 1.37 0 0 0 .179-.437c.04-.174.061-.373.061-.598Zm3.742.914a.565.565 0 0 0-.035-.205.387.387 0 0 0-.124-.17 1.089 1.089 0 0 0-.254-.155 3.587 3.587 0 0 0-.425-.158 5.377 5.377 0 0 1-.551-.211 2.265 2.265 0 0 1-.457-.272 1.23 1.23 0 0 1-.31-.367 1.01 1.01 0 0 1-.112-.483 1 1 0 0 1 .117-.483c.078-.147.188-.272.328-.375.141-.106.307-.187.498-.244.194-.056.406-.085.636-.085.315 0 .589.057.823.17.235.114.416.269.545.466.131.197.197.423.197.677h-.873a.658.658 0 0 0-.08-.328.535.535 0 0 0-.234-.226.835.835 0 0 0-.393-.082.908.908 0 0 0-.38.07.507.507 0 0 0-.229.185.455.455 0 0 0-.076.258c0 .072.017.138.053.196a.594.594 0 0 0 .164.164c.072.051.16.099.266.144.106.045.228.089.367.132.232.07.436.149.612.237.178.088.326.186.445.296.12.11.21.233.27.372.06.139.09.296.09.472 0 .185-.036.351-.108.498-.072.146-.177.27-.313.372-.137.101-.3.178-.49.231-.189.053-.401.08-.635.08-.211 0-.42-.028-.624-.083a1.894 1.894 0 0 1-.56-.255 1.285 1.285 0 0 1-.398-.433c-.1-.176-.15-.384-.15-.624h.882c0 .133.02.245.062.337a.563.563 0 0 0 .172.222.744.744 0 0 0 .27.123c.105.026.22.038.346.038a.939.939 0 0 0 .375-.064.463.463 0 0 0 .293-.437Zm3.383-3.149v4.266h-.875v-4.266h.875Zm1.313 0v.688h-3.48v-.688h3.48Zm3.363 3.58v.686h-2.27v-.686h2.27Zm-1.983-3.58v4.266h-.88v-4.266h.88Zm1.687 1.737v.668h-1.974v-.668h1.974Zm.293-1.737v.688h-2.267v-.688h2.267Zm.516 0h1.59c.327 0 .607.049.841.146.237.098.418.243.545.434.127.191.19.427.19.706 0 .229-.038.425-.116.589a1.103 1.103 0 0 1-.326.407 1.687 1.687 0 0 1-.489.258l-.278.147h-1.383l-.006-.686h1.029a.805.805 0 0 0 .383-.082.538.538 0 0 0 .229-.229.704.704 0 0 0 .079-.34.771.771 0 0 0-.076-.354.514.514 0 0 0-.232-.228.855.855 0 0 0-.39-.08h-.711v3.578h-.88v-4.266Zm2.385 4.266-.973-1.902.929-.006.984 1.867v.04h-.94Zm4.614-1.52h-1.087v-.686h1.087a.892.892 0 0 0 .41-.082.526.526 0 0 0 .232-.235.858.858 0 0 0 0-.691.591.591 0 0 0-.232-.264.76.76 0 0 0-.41-.1h-.782v3.578h-.88v-4.266h1.662c.334 0 .62.06.858.182.24.119.424.284.551.495.127.21.19.452.19.723 0 .276-.063.514-.19.715-.127.201-.31.357-.55.466-.239.11-.525.164-.86.164Zm5.068.834v.686h-2.27v-.686h2.27Zm-1.983-3.58v4.266h-.879v-4.266h.879Zm1.687 1.737v.668h-1.974v-.668h1.974Zm.293-1.737v.688h-2.267v-.688h2.267Zm2.482 0v4.266h-.876v-4.266h.876Zm1.312 0v.688h-3.48v-.688h3.48Zm3.364 3.58v.686h-2.27v-.686h2.27Zm-1.984-3.58v4.266h-.879v-4.266h.88Zm1.688 1.737v.668h-1.975v-.668h1.975Zm.293-1.737v.688h-2.268v-.688h2.268Zm.515 0h1.591c.326 0 .607.049.84.146.237.098.419.243.546.434.127.191.19.427.19.706 0 .229-.039.425-.117.589a1.103 1.103 0 0 1-.325.407 1.687 1.687 0 0 1-.49.258l-.278.147h-1.382l-.006-.686h1.028a.805.805 0 0 0 .384-.082.538.538 0 0 0 .228-.229.704.704 0 0 0 .08-.34.771.771 0 0 0-.077-.354.514.514 0 0 0-.231-.228.855.855 0 0 0-.39-.08h-.712v3.578h-.879v-4.266Zm2.385 4.266-.973-1.902.93-.006.984 1.867v.04h-.941Zm3.68-1.117a.565.565 0 0 0-.035-.205.387.387 0 0 0-.124-.17 1.088 1.088 0 0 0-.254-.155c-.11-.05-.251-.103-.425-.158a5.384 5.384 0 0 1-.55-.211 2.262 2.262 0 0 1-.458-.272 1.23 1.23 0 0 1-.31-.367 1.01 1.01 0 0 1-.112-.483 1 1 0 0 1 .117-.483c.079-.147.188-.272.329-.375.14-.106.306-.187.498-.244.193-.056.405-.085.635-.085.315 0 .59.057.823.17.235.114.416.269.545.466.131.197.197.423.197.677h-.873a.658.658 0 0 0-.08-.328.535.535 0 0 0-.234-.226.835.835 0 0 0-.392-.082.908.908 0 0 0-.381.07.507.507 0 0 0-.229.185.455.455 0 0 0-.076.258c0 .072.018.138.053.196a.594.594 0 0 0 .164.164c.072.051.161.099.266.144.106.045.228.089.367.132.232.07.436.149.612.237a1.9 1.9 0 0 1 .445.296c.12.11.21.233.27.372.06.139.09.296.09.472 0 .185-.035.351-.108.498-.072.146-.176.27-.313.372-.137.101-.3.178-.49.231-.189.053-.4.08-.635.08-.211 0-.42-.028-.624-.083a1.894 1.894 0 0 1-.56-.255 1.285 1.285 0 0 1-.398-.433c-.1-.176-.15-.384-.15-.624h.882c0 .133.02.245.062.337a.563.563 0 0 0 .172.222.743.743 0 0 0 .27.123c.105.026.22.038.346.038a.939.939 0 0 0 .375-.064.463.463 0 0 0 .293-.437Z"/></svg>
